X:1
T:Title
%%score 1 2 3
L:1/8
M:2/2
K:C
V:1 treble nm="Part_1"
V:2 treble-8 nm="Part_2"
V:3 treble-8 nm="Part_3"
V:1
 A8 | c4 c4 | c6 BA | G8 | A4 c4- | c4 B4 | c8 | z8 | c8 | B4 c4 | d8 | c8 | B4 c4 | A8 | G8 | %15
 A4 G4 | A2 c4 B2 | G6 E2 |[M:2/4] F4 |[M:2/2] G8 | z8 | E8 | F4 G4- | G4 A4- | A4 F4- | F4 G4 | %26
 E8 | D8 | z8 | G4 G4- | G2 A2 B4 | c6 B2 | A2 G2 A4 | B4 G4- | G2 E2 F4 | G8 |] %36
V:2
 e8 | f4 f4 | f8 | e8 | d4 c4 | G8 | g8 | e8 | f8 | d4 c4 | G8 | A2 B2 c2 d2 | e4 f4 | f4 e4- | %14
 e8 | e4 d4 | e4 f4 | d8 |[M:2/4] c4 |[M:2/2] d8- | d8 | c8 | d4 c4 | e8 | f4 d4 | c4 G4 | g8 | %27
 a8 | f4 f4 | c4 c4 | z4 G4 | A4 F4 | c8 | B4 d4- | d4 c4 | d8 |] %36
V:3
 A8 | F4 F4 | A6 B2 | c8 | f4 e4 | d8 | c8- | c8 | F8 | G4 A4 | _B6 A2 | F8 | G4 F4 | F4 c4- | %14
 c4 c4- | c4 B4 | A4 A4 | G4 A4- |[M:2/4] A4 |[M:2/2] G8- | G8 | g6 f2 | d4 e4 | c8 | d6 c2 | %25
 A4 d4 | c6 B2 | d8- | d8 | e4 e4- | e4 d4 | d4 A4- | A4 F4 | G4 B4 | A8 | G8 |] %36

